X: 2
T: Portland Fancy
I: RJ J-42 A/D jig
M: 6/8
R: jig
K: A
|:\
"A"E2A E2A | EAB c2c | "D"dcd "E"Bcd | "D"f2e "E"cAF |\
"A"E2A E2A | EAB c2c | "D"dcd "E"EFG | "A"AcB [1 AGF :|2 Ace |]
|:\
"A"a2a gag | "D"fdf e2c | dcd "E"Bcd | "A"cde "E"f2e |\
"A"a2a gag | "D"fdf e2c | dcd "E"EFG | "A"AcB [1 Ace :|2 "A7"AF=G |][K:=g]
K: D
|:\
"D"ABc d2e | f2g a3 | "G"efg "A"Ade | "D"f2d "A"AFG |\
"D"ABc d2e | f2g a3 | "A"efg ABc | "D"d2f d3 :|
|:\
"D"F2A F2A | FAd f3 | "A"ece gec | "D"dfe dAG |\
"D"F2A F2A | FAd f3 | "A"ece gec | "D"d3 d3 :|

